client/resources/iconsets/breeze/src/svg/16x16/icon_meetingrequest_requiredattendee.svg

<svg xmlns="http://www.w3.org/2000/svg" width="12" height="12" viewBox="0 0 12 12">
 <path style="fill:#6d6d70"
       d="M 5 0 C 3.3431458 0 2 1.3431458 2 3 C 2.0000001 3.962211 2.4616532 4.8084484 3.1660156 5.3574219 C 1.3145138 6.0900647 -4.9999999e-08 7.8878799 0 10 C 0 11.104569 2.2385762 12 5 12 C 7.7614237 12 10 11.104569 10 10 C 10 7.8878799 8.6854861 6.0900647 6.8339844 5.3574219 C 7.5383468 4.8084484 7.9999999 3.962211 8 3 C 8 1.3431458 6.6568542 0 5 0 z "
       />
 <path style="fill:#fcc907"
       d="M 9.078125 3 C 7.9935263 3 6.9674622 3.2490539 6 3.7460938 L 6.7089844 5.0527344 C 7.5419562 4.6630553 8.2847876 4.4667969 8.9355469 4.4667969 C 9.3086488 4.4667969 9.5983973 4.5347271 9.8066406 4.6699219 C 10.014884 4.8051167 10.119141 5.0013049 10.119141 5.2597656 C 10.119141 5.490392 10.045942 5.6998318 9.8984375 5.8867188 C 9.7552695 6.0736057 9.4555315 6.3170105 9 6.6152344 C 8.527115 6.9333398 8.2013117 7.2333065 8.0234375 7.515625 C 7.8455631 7.7979436 7.7578125 8.1299923 7.7578125 8.5117188 L 7.7578125 9.0039062 L 9.4824219 9.0039062 L 9.4824219 8.59375 C 9.4824219 8.3551709 9.5360714 8.1627488 9.6445312 8.015625 C 9.7573293 7.8685012 10.021014 7.6534123 10.4375 7.3710938 C 11.044875 6.973462 11.456908 6.6169335 11.673828 6.2988281 C 11.890749 5.9807226 12 5.6034106 12 5.1660156 C 12 4.5099232 11.736315 3.9834992 11.207031 3.5898438 C 10.682085 3.1961883 9.9718336 3 9.078125 3 z M 8.65625 9.9726562 C 8.283148 9.9726562 7.9979622 10.057535 7.8027344 10.228516 C 7.6075069 10.399498 7.5097656 10.652317 7.5097656 10.986328 C 7.5097656 11.30841 7.6109807 11.559347 7.8105469 11.738281 C 8.0101131 11.913238 8.2918249 12 8.65625 12 C 9.0119984 12 9.2887151 11.911357 9.4882812 11.732422 C 9.6878475 11.549512 9.7890625 11.300457 9.7890625 10.986328 C 9.7890625 10.66027 9.6878474 10.409332 9.4882812 10.234375 C 9.2930535 10.059417 9.0163367 9.9726562 8.65625 9.9726562 z "
       />
</svg>

<svg xmlns="http://www.w3.org/2000/svg" width="12" height="12"><path d="M5 0a3 3 0 0 0-3 3c0 .962.462 1.808 1.166 2.357C1.315 6.09 0 7.888 0 10c0 1.105 2.239 2 5 2s5-.895 5-2c0-2.112-1.315-3.91-3.166-4.643C7.538 4.808 8 3.962 8 3a3 3 0 0 0-3-3z" fill="#6d6d70"/><path d="M9.078 3C7.994 3 6.967 3.249 6 3.746l.709 1.307c.833-.39 1.576-.586 2.227-.586.373 0 .663.068.871.203a.66.66 0 0 1 .313.59c0 .231-.073.44-.221.627s-.443.43-.898.729c-.473.318-.799.618-.977.9s-.266.614-.266.996v.492h1.725v-.41c0-.239.054-.431.162-.578s.376-.362.793-.645c.607-.398 1.019-.754 1.236-1.072S12 5.603 12 5.166c0-.656-.264-1.183-.793-1.576S9.972 3 9.078 3zm-.422 6.973c-.373 0-.658.085-.854.256s-.293.424-.293.758c0 .322.101.573.301.752s.481.262.846.262c.356 0 .632-.089.832-.268s.301-.432.301-.746c0-.326-.101-.577-.301-.752s-.472-.262-.832-.262z" fill="#fcc907"/></svg>
